src/assets/icons/wave-pulse.svg

<svg width="14" height="14" viewBox="0 0 14 14" fill="none" xmlns="http://www.w3.org/2000/svg">
<g id="wave-pulse">
<g clip-path="url(#clip0_295_4726)">
<path id="Vector" fill-rule="evenodd" clip-rule="evenodd" d="M5.24157 0.904911C5.51487 0.924334 5.74956 1.10648 5.8362 1.36641L8.93194 10.6536L10.9102 6.69699C11.025 6.46749 11.2595 6.32252 11.5161 6.32252H13.3226C13.6967 6.32252 14 6.62581 14 6.99994C14 7.37407 13.6967 7.67736 13.3226 7.67736H11.9348L9.41235 12.7223C9.28982 12.9674 9.03173 13.1145 8.75843 13.0951C8.48513 13.0756 8.25044 12.8935 8.16379 12.6336L5.06806 3.34635L3.08977 7.30289C2.97502 7.53239 2.74046 7.67736 2.48387 7.67736H0.677419C0.303291 7.67736 0 7.37407 0 6.99994C0 6.62581 0.303291 6.32252 0.677419 6.32252H2.0652L4.58765 1.27767C4.71018 1.03261 4.96827 0.885488 5.24157 0.904911Z" fill="black"/>
</g>
</g>
<defs>
<clipPath id="clip0_295_4726">
<rect width="14" height="14" fill="white"/>
</clipPath>
</defs>
</svg>

<svg xmlns="http://www.w3.org/2000/svg" fill="none" viewBox="0 0 14 14"><g clip-path="url(#a)"><path fill="#000" fill-rule="evenodd" d="M5.242.905c.273.02.508.201.594.461l3.096 9.288 1.978-3.957a.68.68 0 0 1 .606-.374h1.807a.677.677 0 0 1 0 1.354h-1.388l-2.523 5.045a.677.677 0 0 1-1.248-.088L5.068 3.346 3.09 7.303a.68.68 0 0 1-.606.374H.677a.677.677 0 1 1 0-1.354h1.388l2.523-5.045a.68.68 0 0 1 .654-.373" clip-rule="evenodd"/></g><defs><clipPath id="a"><path fill="#fff" d="M0 0h14v14H0z"/></clipPath></defs></svg>
